;FLAVOR:Marlin
;TIME:5140
;Filament used: 4.83965m
;Layer height: 0.2
;MINX:59.22
;MINY:56.779
;MINZ:0.2
;MAXX:120.912
;MAXY:131.58
;MAXZ:20.6
;Generated with Cura_SteamEngine 5.0.0
M140 S60
M105
M190 S60
M104 S200
M105
M109 S200
M82 ;absolute extrusion mode
G28 ; home all axes
 M117 Purge extruder
 G92 E0 ; reset extruder
 G1 Z1.0 F3000 ; move z up little to prevent scratching of surface
 G1 X2 Y20 Z0.3 F5000.0 ; move to start-line position
 G1 X2 Y175.0 Z0.3 F1500.0 E15 ; draw 1st line
 G1 X2 Y175.0 Z0.4 F5000.0 ; move to side a little
 G1 X2 Y20 Z0.4 F1500.0 E30 ; draw 2nd line
 G92 E0 ; reset extruder
 G1 Z1.0 F3000 ; move z up little to prevent scratching of surface
G92 E0
G92 E0
G1 F2400 E-1
;LAYER_COUNT:101
;LAYER:0
M107
G1 F240 Z0.6
;MESH:ShangKe.STL
G0 F6000 X59.22 Y91.339 Z0.6
;TYPE:WALL-OUTER
G1 F240 Z0.2
G1 F2400 E0
G1 F1200 X120.78 Y91.339 E2.25224
G1 X120.78 Y68.559 E3.08568
G1 X120.78 Y56.779 E3.51666
G1 X59.22 Y56.779 E5.7689
G1 X59.22 Y91.339 E7.03332
G0 F6000 X59.66 Y90.899
;TYPE:WALL-INNER
G1 F1200 X120.34 Y90.899 E9.25337
G1 X120.34 Y68.559 E10.0707
G1 X120.34 Y57.219 E10.48559
G1 X59.66 Y57.219 E12.70564
G1 X59.66 Y90.899 E13.93786
G0 F6000 X60.1 Y90.459
G1 F1200 X119.9 Y90.459 E16.12571
G1 X119.9 Y68.559 E16.92695
G1 X119.9 Y57.659 E17.32574
G1 X60.1 Y57.659 E19.51359
G1 X60.1 Y90.459 E20.71361
G1 F2400 E19.71361
G1 F240 Z0.6
G0 F6000 X83 Y81.279 Z0.6
;TYPE:WALL-OUTER
G1 F240 Z0.2
G1 F2400 E20.71361
G1 F1200 X82.933 Y81.269 E20.71609
G1 X82.876 Y81.241 E20.71842
G1 X82.832 Y81.202 E20.72057
G1 X82.803 Y81.159 E20.72246
G1 X82.783 Y81.096 E20.72488
G1 X82.78 Y81.059 E20.72624
G1 X82.78 Y67.041 E21.23911
G1 X82.794 Y66.981 E21.24136
G1 X82.832 Y66.916 E21.24411
G1 X82.876 Y66.877 E21.24627
G1 X82.933 Y66.849 E21.24859
G1 X83 Y66.839 E21.25107
G1 X97 Y66.839 E21.76327
G1 X97.067 Y66.849 E21.76575
G1 X97.124 Y66.877 E21.76808
G1 X97.168 Y66.916 E21.77023
G1 X97.197 Y66.959 E21.77212
G1 X97.217 Y67.022 E21.77454
G1 X97.22 Y67.059 E21.7759
G1 X97.22 Y81.077 E22.28876
G1 X97.206 Y81.137 E22.29102
G1 X97.168 Y81.202 E22.29377
G1 X97.124 Y81.241 E22.29592
G1 X97.067 Y81.269 E22.29825
G1 X97.034 Y81.277 E22.29949
G1 X97 Y81.279 E22.30074
G1 X83 Y81.279 E22.81294
G0 F6000 X83 Y81.719
;TYPE:WALL-INNER
G1 F1200 X82.886 Y81.71 E22.81713
G1 X82.801 Y81.689 E22.82033
G1 X82.71 Y81.653 E22.82391
G1 X82.628 Y81.605 E22.82739
G1 X82.557 Y81.549 E22.83069
G1 X82.497 Y81.488 E22.83383
G1 X82.448 Y81.423 E22.8368
G1 X82.41 Y81.357 E22.83959
G1 X82.382 Y81.292 E22.84218
G1 X82.362 Y81.229 E22.8446
G1 X82.349 Y81.169 E22.84684
G1 X82.342 Y81.112 E22.84894
G1 X82.34 Y81.059 E22.85089
G1 X82.34 Y67.059 E23.36309
G1 X82.342 Y67.006 E23.36503
G1 X82.349 Y66.949 E23.36713
G1 X82.362 Y66.889 E23.36938
G1 X82.382 Y66.826 E23.3718
G1 X82.41 Y66.761 E23.37439
G1 X82.449 Y66.695 E23.37719
G1 X82.497 Y66.63 E23.38015
G1 X82.557 Y66.568 E23.3833
G1 X82.629 Y66.513 E23.38662
G1 X82.71 Y66.465 E23.39006
G1 X82.801 Y66.429 E23.39364
G1 X82.899 Y66.406 E23.39733
G1 X83 Y66.399 E23.40103
G1 X97 Y66.399 E23.91324
G1 X97.114 Y66.408 E23.91742
G1 X97.199 Y66.429 E23.92062
G1 X97.29 Y66.465 E23.9242
G1 X97.372 Y66.513 E23.92768
G1 X97.443 Y66.569 E23.93099
G1 X97.503 Y66.63 E23.93412
G1 X97.552 Y66.695 E23.9371
G1 X97.59 Y66.761 E23.93988
G1 X97.618 Y66.826 E23.94247
G1 X97.638 Y66.889 E23.94489
G1 X97.651 Y66.949 E23.94714
G1 X97.658 Y67.006 E23.94924
G1 X97.66 Y67.059 E23.95118
G1 X97.66 Y81.059 E24.46339
G1 X97.658 Y81.112 E24.46533
G1 X97.651 Y81.169 E24.46743
G1 X97.638 Y81.229 E24.46967
G1 X97.618 Y81.292 E24.47209
G1 X97.59 Y81.357 E24.47468
G1 X97.551 Y81.423 E24.47749
G1 X97.503 Y81.488 E24.48044
G1 X97.443 Y81.55 E24.4836
G1 X97.371 Y81.605 E24.48691
G1 X97.29 Y81.653 E24.49036
G1 X97.199 Y81.689 E24.49394
G1 X97.101 Y81.712 E24.49762
G1 X97 Y81.719 E24.50133
G1 X83 Y81.719 E25.01353
G0 F6000 X83 Y82.159
G1 F1200 X82.831 Y82.147 E25.01973
G1 X82.669 Y82.109 E25.02582
G1 X82.517 Y82.048 E25.03181
G1 X82.381 Y81.969 E25.03756
G1 X82.262 Y81.876 E25.04309
G1 X82.162 Y81.773 E25.04834
G1 X82.081 Y81.665 E25.05328
G1 X82.017 Y81.555 E25.05794
G1 X81.97 Y81.447 E25.06225
G1 X81.936 Y81.342 E25.06628
G1 X81.915 Y81.242 E25.07002
G1 X81.903 Y81.147 E25.07353
G1 X81.9 Y81.059 E25.07675
G1 X81.9 Y67.059 E25.58895
G1 X81.903 Y66.971 E25.59218
G1 X81.915 Y66.876 E25.59568
G1 X81.936 Y66.776 E25.59942
G1 X81.97 Y66.671 E25.60345
G1 X82.018 Y66.563 E25.60778
G1 X82.081 Y66.453 E25.61242
G1 X82.162 Y66.345 E25.61736
G1 X82.262 Y66.242 E25.62261
G1 X82.381 Y66.149 E25.62813
G1 X82.518 Y66.07 E25.63392
G1 X82.669 Y66.009 E25.63988
G1 X82.831 Y65.971 E25.64597
G1 X83 Y65.959 E25.65216
G1 X97 Y65.959 E26.16437
G1 X97.169 Y65.971 E26.17057
G1 X97.331 Y66.009 E26.17666
G1 X97.483 Y66.07 E26.18265
G1 X97.619 Y66.149 E26.1884
G1 X97.738 Y66.242 E26.19393
G1 X97.838 Y66.345 E26.19918
G1 X97.919 Y66.453 E26.20412
G1 X97.983 Y66.563 E26.20878
G1 X98.03 Y66.671 E26.21309
G1 X98.064 Y66.776 E26.21712
G1 X98.085 Y66.876 E26.22086
G1 X98.097 Y66.971 E26.22437
G1 X98.1 Y67.059 E26.22759
G1 X98.1 Y81.059 E26.73979
G1 X98.097 Y81.147 E26.74301
G1 X98.085 Y81.242 E26.74652
G1 X98.064 Y81.342 E26.75026
G1 X98.03 Y81.447 E26.75429
G1 X97.982 Y81.555 E26.75862
G1 X97.919 Y81.665 E26.76326
G1 X97.838 Y81.773 E26.76819
G1 X97.738 Y81.876 E26.77345
G1 X97.619 Y81.969 E26.77897
G1 X97.482 Y82.048 E26.78476
G1 X97.331 Y82.109 E26.79072
G1 X97.169 Y82.147 E26.7968
G1 X97 Y82.159 E26.803
G1 X83 Y82.159 E27.31521
G0 F6000 X82.986 Y82.555
;TYPE:SKIN
G1 F1200 X82.783 Y82.54 E27.32266
G1 X82.749 Y82.535 E27.32391
G1 X82.565 Y82.492 E27.33083
G1 X82.534 Y82.482 E27.33202
G1 X82.359 Y82.412 E27.33891
G1 X82.33 Y82.398 E27.34009
G1 X82.172 Y82.306 E27.34678
G1 X82.146 Y82.288 E27.34794
G1 X82.005 Y82.176 E27.35453
G1 X81.984 Y82.157 E27.35556
G1 X81.868 Y82.038 E27.36164
G1 X81.85 Y82.017 E27.36265
G1 X81.744 Y81.874 E27.36917
G1 X81.667 Y81.742 E27.37476
G1 X81.601 Y81.592 E27.38075
G1 X81.55 Y81.43 E27.38697
G1 X81.522 Y81.289 E27.39223
G1 X81.504 Y81.079 E27.39994
G1 X81.508 Y66.941 E27.91719
G1 X81.548 Y66.695 E27.92631
G1 X81.594 Y66.546 E27.93202
G1 X81.655 Y66.399 E27.93784
G1 X81.668 Y66.373 E27.9389
G1 X81.746 Y66.242 E27.94448
G1 X81.851 Y66.101 E27.95091
G1 X81.868 Y66.08 E27.9519
G1 X81.99 Y65.954 E27.95832
G1 X82.013 Y65.934 E27.95943
G1 X82.148 Y65.829 E27.96569
G1 X82.172 Y65.813 E27.96675
G1 X82.329 Y65.721 E27.9734
G1 X82.359 Y65.706 E27.97463
G1 X82.534 Y65.636 E27.98153
G1 X82.563 Y65.627 E27.98264
G1 X82.756 Y65.58 E27.9899
G1 X82.99 Y65.563 E27.99849
G1 X97.014 Y65.563 E28.51157
G1 X97.217 Y65.578 E28.51902
G1 X97.251 Y65.583 E28.52028
G1 X97.435 Y65.626 E28.52719
G1 X97.466 Y65.636 E28.52838
G1 X97.641 Y65.706 E28.53528
G1 X97.67 Y65.72 E28.53646
G1 X97.825 Y65.81 E28.54301
G1 X97.851 Y65.828 E28.54417
G1 X97.995 Y65.942 E28.55089
G1 X98.016 Y65.961 E28.55193
G1 X98.13 Y66.078 E28.5579
G1 X98.148 Y66.099 E28.55891
G1 X98.255 Y66.243 E28.56548
G1 X98.329 Y66.369 E28.57082
G1 X98.395 Y66.518 E28.57679
G1 X98.443 Y66.662 E28.58234
G1 X98.474 Y66.799 E28.58748
G1 X98.478 Y66.827 E28.58851
G1 X98.496 Y67.039 E28.5963
G1 X98.492 Y81.177 E29.11355
G1 X98.452 Y81.423 E29.12267
G1 X98.406 Y81.572 E29.12838
G1 X98.345 Y81.719 E29.1342
G1 X98.332 Y81.745 E29.13526
G1 X98.254 Y81.876 E29.14084
G1 X98.149 Y82.017 E29.14727
G1 X98.132 Y82.037 E29.14823
G1 X98.013 Y82.16 E29.15449
G1 X97.99 Y82.181 E29.15563
G1 X97.852 Y82.289 E29.16205
G1 X97.828 Y82.305 E29.1631
G1 X97.671 Y82.397 E29.16976
G1 X97.641 Y82.412 E29.17099
G1 X97.466 Y82.482 E29.17788
G1 X97.437 Y82.491 E29.17899
G1 X97.244 Y82.538 E29.18626
G1 X97.01 Y82.555 E29.19484
G1 X82.986 Y82.555 E29.70793
G1 F2400 E28.70793
G1 F240 Z0.6
G0 F6000 X60.496 Y90.063 Z0.6
G1 F240 Z0.2
G1 F2400 E29.70793
G1 F1200 X119.504 Y90.063 E31.8668
G1 X119.504 Y68.559 E32.65355
G1 X119.504 Y58.055 E33.03785
G1 X60.497 Y58.056 E35.19669
G1 X60.496 Y90.063 E36.3677
G0 F6000 X61.218 Y89.842
G1 F1200 X60.716 Y89.34 E36.39368
G0 F6000 X60.716 Y88.717
G1 F1200 X61.84 Y89.842 E36.45186
G0 F6000 X62.462 Y89.842
G1 F1200 X60.716 Y88.095 E36.54223
G0 F6000 X60.716 Y87.473
G1 F1200 X63.085 Y89.842 E36.6648
G0 F6000 X63.707 Y89.842
G1 F1200 X60.716 Y86.851 E36.81955
G0 F6000 X60.716 Y86.228
G1 F1200 X64.329 Y89.842 E37.00652
G0 F6000 X64.952 Y89.842
G1 F1200 X60.716 Y85.606 E37.22569
G0 F6000 X60.716 Y84.984
G1 F1200 X65.574 Y89.842 E37.47705
G0 F6000 X66.196 Y89.842
G1 F1200 X60.716 Y84.362 E37.76059
G0 F6000 X60.716 Y83.739
G1 F1200 X66.818 Y89.842 E38.07633
G0 F6000 X67.441 Y89.842
G1 F1200 X60.716 Y83.117 E38.42429
G0 F6000 X60.716 Y82.495
G1 F1200 X68.063 Y89.842 E38.80443
G0 F6000 X68.685 Y89.842
G1 F1200 X60.716 Y81.873 E39.21675
G0 F6000 X60.716 Y81.25
G1 F1200 X69.307 Y89.842 E39.66128
G0 F6000 X69.93 Y89.842
G1 F1200 X60.716 Y80.628 E40.13802
G0 F6000 X60.716 Y80.006
G1 F1200 X70.552 Y89.842 E40.64694
G0 F6000 X71.174 Y89.842
G1 F1200 X60.716 Y79.384 E41.18804
G0 F6000 X60.716 Y78.761
G1 F1200 X71.796 Y89.842 E41.76135
G0 F6000 X72.419 Y89.842
G1 F1200 X60.716 Y78.139 E42.36687
G0 F6000 X60.716 Y77.517
G1 F1200 X73.041 Y89.842 E43.00458
G0 F6000 X73.663 Y89.842
G1 F1200 X60.716 Y76.895 E43.67446
G0 F6000 X60.716 Y76.272
G1 F1200 X74.285 Y89.842 E44.37656
G0 F6000 X74.908 Y89.842
G1 F1200 X60.716 Y75.65 E45.11086
G0 F6000 X60.716 Y75.028
G1 F1200 X75.53 Y89.842 E45.87735
G0 F6000 X76.152 Y89.842
G1 F1200 X60.716 Y74.406 E46.67602
G0 F6000 X60.716 Y73.783
G1 F1200 X76.774 Y89.842 E47.50689
G0 F6000 X77.397 Y89.842
G1 F1200 X60.716 Y73.161 E48.36998
G0 F6000 X60.716 Y72.539
G1 F1200 X78.019 Y89.842 E49.26525
G0 F6000 X78.641 Y89.842
G1 F1200 X60.716 Y71.917 E50.1927
G0 F6000 X60.716 Y71.294
G1 F1200 X79.263 Y89.842 E51.15236
G0 F6000 X79.886 Y89.842
G1 F1200 X60.716 Y70.672 E52.14422
G0 F6000 X60.716 Y70.05
G1 F1200 X80.508 Y89.842 E53.16827
G0 F6000 X81.13 Y89.842
G1 F1200 X60.716 Y69.427 E54.22453
G0 F6000 X60.716 Y68.805
G1 F1200 X81.752 Y89.842 E55.31297
G0 F6000 X82.375 Y89.842
G1 F1200 X60.716 Y68.183 E56.43362
G0 F6000 X60.716 Y67.561
G1 F1200 X82.997 Y89.842 E57.58646
G0 F6000 X83.619 Y89.842
G1 F1200 X60.716 Y66.938 E58.7715
G0 F6000 X60.716 Y66.316
G1 F1200 X84.241 Y89.842 E59.98872
G0 F6000 X84.864 Y89.842
G1 F1200 X60.716 Y65.694 E61.23816
G0 F6000 X60.716 Y65.072
G1 F1200 X85.486 Y89.842 E62.51977
G0 F6000 X86.108 Y89.842
G1 F1200 X60.716 Y64.449 E63.8336
G0 F6000 X60.716 Y63.827
G1 F1200 X86.73 Y89.842 E65.1796
G0 F6000 X87.353 Y89.842
G1 F1200 X60.716 Y63.205 E66.55782
G0 F6000 X60.716 Y62.583
G1 F1200 X87.975 Y89.842 E67.96821
G0 F6000 X88.597 Y89.842
G1 F1200 X60.716 Y61.96 E69.41082
G0 F6000 X60.716 Y61.338
G1 F1200 X89.219 Y89.842 E70.88561
G0 F6000 X89.842 Y89.842
G1 F1200 X82.757 Y82.757 E71.25219
G0 F6000 X83.396 Y82.774
G1 F1200 X90.465 Y89.842 E71.61792
G0 F6000 X91.087 Y89.842
G1 F1200 X84.019 Y82.774 E71.98362
G0 F6000 X84.641 Y82.774
G1 F1200 X91.709 Y89.842 E72.34933
G0 F6000 X92.331 Y89.842
G1 F1200 X85.263 Y82.774 E72.71503
G0 F6000 X85.885 Y82.774
G1 F1200 X92.954 Y89.842 E73.08076
G0 F6000 X93.576 Y89.842
G1 F1200 X86.508 Y82.774 E73.44646
G0 F6000 X87.13 Y82.774
G1 F1200 X94.198 Y89.842 E73.81216
G0 F6000 X94.82 Y89.842
G1 F1200 X87.752 Y82.774 E74.17787
G0 F6000 X88.374 Y82.774
G1 F1200 X95.443 Y89.842 E74.54359
G0 F6000 X96.065 Y89.842
G1 F1200 X88.997 Y82.774 E74.9093
G0 F6000 X89.619 Y82.774
G1 F1200 X96.687 Y89.842 E75.275
G0 F6000 X97.309 Y89.842
G1 F1200 X90.241 Y82.774 E75.6407
G0 F6000 X90.863 Y82.774
G1 F1200 X97.932 Y89.842 E76.00643
G0 F6000 X98.554 Y89.842
G1 F1200 X91.486 Y82.774 E76.37213
G0 F6000 X92.108 Y82.774
G1 F1200 X99.176 Y89.842 E76.73784
G0 F6000 X99.798 Y89.842
G1 F1200 X92.73 Y82.774 E77.10354
G0 F6000 X93.352 Y82.774
G1 F1200 X100.421 Y89.842 E77.46927
G0 F6000 X101.043 Y89.842
G1 F1200 X93.975 Y82.774 E77.83497
G0 F6000 X94.597 Y82.774
G1 F1200 X101.665 Y89.842 E78.20067
G0 F6000 X102.287 Y89.842
G1 F1200 X95.219 Y82.774 E78.56638
G0 F6000 X95.841 Y82.774
G1 F1200 X102.91 Y89.842 E78.93211
G0 F6000 X103.532 Y89.842
G1 F1200 X96.464 Y82.774 E79.29781
G0 F6000 X97.082 Y82.77
G1 F1200 X104.154 Y89.842 E79.66372
G0 F6000 X104.776 Y89.842
G1 F1200 X97.598 Y82.664 E80.03511
G0 F6000 X98.004 Y82.448
G1 F1200 X105.399 Y89.842 E80.41771
G0 F6000 X106.021 Y89.842
G1 F1200 X98.325 Y82.146 E80.8159
G0 F6000 X98.563 Y81.762
G1 F1200 X106.643 Y89.842 E81.23397
G0 F6000 X107.265 Y89.842
G1 F1200 X98.695 Y81.272 E81.67739
G0 F6000 X98.711 Y80.666
G1 F1200 X107.888 Y89.842 E82.15218
G0 F6000 X108.51 Y89.842
G1 F1200 X98.711 Y80.043 E82.65919
G0 F6000 X98.711 Y79.421
G1 F1200 X109.132 Y89.842 E83.19838
G0 F6000 X109.754 Y89.842
G1 F1200 X98.711 Y78.799 E83.76975
G0 F6000 X98.711 Y78.177
G1 F1200 X110.377 Y89.842 E84.37333
G0 F6000 X110.999 Y89.842
G1 F1200 X98.712 Y77.555 E85.00907
G0 F6000 X98.712 Y76.933
G1 F1200 X111.621 Y89.842 E85.67699
G0 F6000 X112.244 Y89.842
G1 F1200 X98.712 Y76.31 E86.37714
G0 F6000 X98.712 Y75.688
G1 F1200 X112.866 Y89.842 E87.10948
G0 F6000 X113.488 Y89.842
G1 F1200 X98.712 Y75.066 E87.874
G0 F6000 X98.712 Y74.444
G1 F1200 X114.11 Y89.842 E88.6707
G0 F6000 X114.733 Y89.842
G1 F1200 X98.712 Y73.822 E89.49961
G0 F6000 X98.712 Y73.2
G1 F1200 X115.355 Y89.842 E90.3607
G0 F6000 X115.977 Y89.842
G1 F1200 X98.712 Y72.578 E91.25398
G0 F6000 X98.712 Y71.955
G1 F1200 X116.599 Y89.842 E92.17947
G0 F6000 X117.222 Y89.842
G1 F1200 X98.712 Y71.333 E93.13716
G0 F6000 X98.712 Y70.711
G1 F1200 X117.844 Y89.842 E94.12703
G0 F6000 X118.466 Y89.842
G1 F1200 X98.713 Y70.089 E95.14907
G0 F6000 X98.713 Y69.467
G1 F1200 X119.088 Y89.842 E96.20328
G0 F6000 X119.283 Y89.415
G1 F1200 X98.713 Y68.845 E97.26759
G0 F6000 X98.713 Y68.223
G1 F1200 X119.283 Y88.792 E98.33187
G0 F6000 X119.283 Y88.17
G1 F1200 X98.713 Y67.6 E99.39617
G0 F6000 X98.709 Y66.974
G1 F1200 X119.283 Y87.548 E100.46068
G0 F6000 X119.283 Y86.926
G1 F1200 X98.306 Y65.949 E101.54605
G0 F6000 X98.108 Y65.751
G1 F1200 X90.632 Y58.275 E101.93286
G0 F6000 X90.01 Y58.275
G1 F1200 X97.083 Y65.348 E102.29882
G0 F6000 X96.455 Y65.343
G1 F1200 X89.388 Y58.275 E102.6645
G0 F6000 X88.765 Y58.275
G1 F1200 X95.833 Y65.343 E103.0302
G0 F6000 X95.211 Y65.343
G1 F1200 X88.143 Y58.275 E103.3959
G0 F6000 X87.521 Y58.275
G1 F1200 X94.588 Y65.343 E103.76158
G0 F6000 X93.966 Y65.343
G1 F1200 X86.899 Y58.275 E104.12726
G0 F6000 X86.276 Y58.275
G1 F1200 X93.344 Y65.343 E104.49296
G0 F6000 X92.722 Y65.343
G1 F1200 X85.654 Y58.275 E104.85866
G0 F6000 X85.032 Y58.275
G1 F1200 X92.099 Y65.343 E105.22434
G0 F6000 X91.477 Y65.343
G1 F1200 X84.41 Y58.275 E105.59001
G0 F6000 X83.787 Y58.275
G1 F1200 X90.855 Y65.343 E105.95572
G0 F6000 X90.233 Y65.343
G1 F1200 X83.165 Y58.275 E106.32142
G0 F6000 X82.543 Y58.275
G1 F1200 X89.61 Y65.343 E106.6871
G0 F6000 X88.988 Y65.343
G1 F1200 X81.921 Y58.275 E107.05277
G0 F6000 X81.298 Y58.275
G1 F1200 X88.366 Y65.343 E107.41848
G0 F6000 X87.744 Y65.343
G1 F1200 X80.676 Y58.275 E107.78418
G0 F6000 X80.054 Y58.275
G1 F1200 X87.121 Y65.343 E108.14986
G0 F6000 X86.499 Y65.343
G1 F1200 X79.432 Y58.275 E108.51553
G0 F6000 X78.809 Y58.275
G1 F1200 X85.877 Y65.343 E108.88124
G0 F6000 X85.255 Y65.343
G1 F1200 X78.187 Y58.275 E109.24694
G0 F6000 X77.565 Y58.275
G1 F1200 X84.632 Y65.343 E109.61262
G0 F6000 X84.01 Y65.343
G1 F1200 X76.943 Y58.275 E109.97829
G0 F6000 X76.32 Y58.275
G1 F1200 X83.388 Y65.343 E110.344
G0 F6000 X82.78 Y65.357
G1 F1200 X75.698 Y58.275 E110.71042
G0 F6000 X75.076 Y58.275
G1 F1200 X82.297 Y65.496 E111.08404
G0 F6000 X81.913 Y65.734
G1 F1200 X74.454 Y58.275 E111.46998
G0 F6000 X73.831 Y58.275
G1 F1200 X81.611 Y66.055 E111.87252
G0 F6000 X81.392 Y66.458
G1 F1200 X73.209 Y58.275 E112.29591
G0 F6000 X72.587 Y58.275
G1 F1200 X81.286 Y66.975 E112.74603
G0 F6000 X81.286 Y67.597
G1 F1200 X71.965 Y58.275 E113.22833
G0 F6000 X71.342 Y58.275
G1 F1200 X81.286 Y68.219 E113.74284
G0 F6000 X81.286 Y68.841
G1 F1200 X70.72 Y58.275 E114.28953
G0 F6000 X70.098 Y58.275
G1 F1200 X81.286 Y69.464 E114.86843
G0 F6000 X81.286 Y70.086
G1 F1200 X69.476 Y58.275 E115.47951
G0 F6000 X68.853 Y58.275
