;FLAVOR:Marlin
;TIME:1485
;Filament used: 1.31411m
;Layer height: 0.2
;MINX:60.719
;MINY:74.219
;MINZ:0.2
;MAXX:119.28
;MAXY:105.781
;MAXZ:4
;Generated with Cura_SteamEngine 5.0.0
M140 S60
M105
M190 S60
M104 S200
M105
M109 S200
M82 ;absolute extrusion mode
G28 ; home all axes
 M117 Purge extruder
 G92 E0 ; reset extruder
 G1 Z1.0 F3000 ; move z up little to prevent scratching of surface
 G1 X2 Y20 Z0.3 F5000.0 ; move to start-line position
 G1 X2 Y175.0 Z0.3 F1500.0 E15 ; draw 1st line
 G1 X2 Y175.0 Z0.4 F5000.0 ; move to side a little
 G1 X2 Y20 Z0.4 F1500.0 E30 ; draw 2nd line
 G92 E0 ; reset extruder
 G1 Z1.0 F3000 ; move z up little to prevent scratching of surface
G92 E0
G92 E0
G1 F2400 E-1
;LAYER_COUNT:18
;LAYER:0
M107
G1 F240 Z0.6
;MESH:DiKe2.STL
G0 F6000 X64.028 Y79.42 Z0.6
;TYPE:WALL-OUTER
G1 F240 Z0.2
G1 F2400 E0
G1 F1200 X63.988 Y79.42 E0.00146
G1 X63.732 Y79.398 E0.01086
G1 X63.696 Y79.392 E0.0122
G1 X63.453 Y79.33 E0.02137
G1 X63.419 Y79.318 E0.02269
G1 X63.184 Y79.215 E0.03208
G1 X63.15 Y79.196 E0.03351
G1 X62.942 Y79.056 E0.04268
G1 X62.912 Y79.032 E0.04408
G1 X62.728 Y78.855 E0.05343
G1 X62.705 Y78.829 E0.0547
G1 X62.551 Y78.624 E0.06408
G1 X62.53 Y78.591 E0.06551
G1 X62.414 Y78.363 E0.07487
G1 X62.4 Y78.329 E0.07621
G1 X62.324 Y78.086 E0.08553
G1 X62.316 Y78.049 E0.08691
G1 X62.283 Y77.799 E0.09614
G1 X62.282 Y77.761 E0.09753
G1 X62.292 Y77.51 E0.10672
G1 X62.296 Y77.473 E0.10808
G1 F1202.7 X62.347 Y77.236 E0.11693
G1 X62.357 Y77.202 E0.11822
G1 X62.452 Y76.952 E0.12799
G1 F1200 X62.469 Y76.918 E0.12938
G1 X62.6 Y76.701 E0.13865
G1 X62.622 Y76.671 E0.14001
G1 X62.788 Y76.479 E0.1493
G1 X62.816 Y76.451 E0.15075
G1 X63.017 Y76.289 E0.16019
G1 X63.046 Y76.269 E0.16148
G1 X63.263 Y76.146 E0.17061
G1 X63.297 Y76.13 E0.17198
G1 F1202.7 X63.538 Y76.044 E0.18132
G1 X63.575 Y76.033 E0.18273
G1 F1200 X63.837 Y75.988 E0.19246
G1 X63.875 Y75.985 E0.19385
G1 X64.122 Y75.985 E0.20289
G1 X64.159 Y75.987 E0.20424
G1 X64.41 Y76.029 E0.21355
G1 X64.688 Y76.124 E0.2243
G1 X64.721 Y76.139 E0.22563
G1 X64.942 Y76.262 E0.23488
G1 X64.972 Y76.282 E0.2362
G1 X65.172 Y76.441 E0.24555
G1 X65.201 Y76.468 E0.247
G1 X65.366 Y76.655 E0.25612
G1 X65.388 Y76.685 E0.25748
G1 X65.52 Y76.899 E0.26668
G1 X65.535 Y76.929 E0.26791
G1 X65.636 Y77.168 E0.2774
G1 X65.648 Y77.206 E0.27886
G1 X65.702 Y77.454 E0.28815
G1 X65.707 Y77.49 E0.28948
G1 X65.719 Y77.743 E0.29874
G1 X65.718 Y77.782 E0.30017
G1 X65.686 Y78.038 E0.30961
G1 X65.678 Y78.075 E0.31099
G1 X65.605 Y78.315 E0.32017
G1 X65.591 Y78.349 E0.32152
G1 X65.468 Y78.595 E0.33158
G1 X65.306 Y78.817 E0.34163
G1 X65.282 Y78.844 E0.34296
G1 X65.092 Y79.029 E0.35266
G1 X65.071 Y79.046 E0.35365
G1 X64.849 Y79.198 E0.36349
G1 X64.597 Y79.312 E0.37361
G1 X64.563 Y79.324 E0.37493
G1 X64.319 Y79.389 E0.38417
G1 X64.283 Y79.396 E0.38551
G1 X64.028 Y79.42 E0.39488
G0 F6000 X64.778 Y79.713
;TYPE:WALL-INNER
G1 F1200 X64.676 Y79.749 E0.39884
G1 X64.432 Y79.814 E0.40808
G1 X64.324 Y79.834 E0.41209
G1 X64.069 Y79.858 E0.42146
G1 X63.95 Y79.858 E0.42582
G1 X63.694 Y79.836 E0.43522
G1 X63.587 Y79.818 E0.43919
G1 X63.344 Y79.756 E0.44836
G1 X63.242 Y79.721 E0.45231
G1 X63.008 Y79.618 E0.46166
G1 X62.904 Y79.561 E0.466
G1 X62.696 Y79.421 E0.47518
G1 X62.607 Y79.35 E0.47934
G1 X62.422 Y79.172 E0.48873
G1 X62.353 Y79.093 E0.49257
G1 X62.199 Y78.888 E0.50195
G1 X62.138 Y78.791 E0.50614
G1 X62.022 Y78.563 E0.5155
G1 X61.98 Y78.46 E0.51957
G1 F1163 X61.942 Y78.384 E0.52278
G1 F1095.4 X61.904 Y78.307 E0.52622
G1 F1037.3 X61.865 Y78.23 E0.52988
G1 F956.5 X61.81 Y78.116 E0.53568
G1 F921.5 X61.785 Y77.865 E0.5477
G1 F937.8 X61.782 Y77.741 E0.55351
G1 X61.789 Y77.49 E0.56526
G1 F924.7 X61.799 Y77.369 E0.57103
G1 F937.8 X61.828 Y77.293 E0.57484
G1 F981.4 X61.857 Y77.216 E0.57852
G1 F1031.2 X61.887 Y77.139 E0.58204
G1 F1116.3 X61.943 Y77.042 E0.58644
G1 F1191.9 X62.041 Y76.794 E0.59626
G1 F1200 X62.092 Y76.69 E0.6005
G1 X62.223 Y76.474 E0.60974
G1 X62.289 Y76.383 E0.61386
G1 X62.455 Y76.191 E0.62314
G1 X62.54 Y76.108 E0.62749
G1 X62.741 Y75.947 E0.63691
G1 X62.828 Y75.887 E0.64078
G1 X63.045 Y75.764 E0.6499
G1 X63.147 Y75.716 E0.65403
G1 F1202.7 X63.388 Y75.63 E0.66337
G1 X63.499 Y75.599 E0.66758
G1 F1200 X63.763 Y75.554 E0.67737
G1 X63.875 Y75.545 E0.68148
G1 X64.122 Y75.545 E0.69052
G1 X64.231 Y75.553 E0.69452
G1 X64.483 Y75.595 E0.70387
G1 F1202.7 X64.593 Y75.625 E0.70803
G1 X64.834 Y75.709 E0.71734
G1 F1200 X64.935 Y75.755 E0.72141
G1 X65.156 Y75.878 E0.73066
G1 X65.246 Y75.938 E0.73462
G1 X65.446 Y76.097 E0.74396
G1 X65.531 Y76.177 E0.74823
G1 X65.696 Y76.364 E0.75736
G1 X65.762 Y76.454 E0.76144
G1 X65.894 Y76.668 E0.77064
G1 X65.94 Y76.757 E0.77431
G1 X66.042 Y76.996 E0.78381
G1 X66.078 Y77.112 E0.78826
G1 X66.132 Y77.36 E0.79754
G1 X66.147 Y77.469 E0.80157
G1 X66.159 Y77.722 E0.81084
G1 X66.154 Y77.836 E0.81501
G1 X66.122 Y78.092 E0.82445
G1 X66.099 Y78.203 E0.8286
G1 X66.026 Y78.443 E0.83777
G1 X65.985 Y78.545 E0.8418
G1 X65.871 Y78.774 E0.85115
G1 X65.842 Y78.827 E0.85337
G1 X65.813 Y78.87 E0.85526
G1 X65.638 Y79.106 E0.86601
G1 X65.596 Y79.152 E0.86829
G1 X65.383 Y79.359 E0.87916
G1 X65.32 Y79.409 E0.8821
G1 X65.113 Y79.551 E0.89128
G1 X65.067 Y79.58 E0.89327
G1 X65.011 Y79.608 E0.89556
G1 X64.778 Y79.713 E0.90491
G1 F2400 E-0.09509
G1 F240 Z0.6
G0 F6000 X64.56 Y75.131 Z0.6
G1 F240 Z0.2
G1 F2400 E0.90491
G1 F1075.4 X64.432 Y75.121 E0.91016
G1 F1123.4 X64.304 Y75.11 E0.91518
G1 F1168.1 X64.122 Y75.103 E0.92202
G1 F1189.2 X63.875 Y75.103 E0.93114
G1 F1168.1 X63.687 Y75.111 E0.93821
G1 F1121 X63.552 Y75.122 E0.94352
G1 F1068.8 X63.417 Y75.133 E0.94908
G1 F2400 E-0.05092
G1 F240 Z0.6
G0 F6000 X64.339 Y103.993 Z0.6
;TYPE:WALL-OUTER
G1 F240 Z0.2
G1 F2400 E0.94908
G1 F1200 X64.067 Y104.02 E0.95908
G1 X64.027 Y104.02 E0.96055
G1 X63.771 Y103.998 E0.96995
G1 X63.735 Y103.992 E0.97128
G1 F1202.7 X63.492 Y103.929 E0.98044
G1 X63.458 Y103.918 E0.98175
G1 F1200 X63.223 Y103.815 E0.99114
G1 X63.189 Y103.796 E0.99256
G1 X62.98 Y103.656 E1.00177
G1 X62.89 Y103.575 E1.0062
G1 X62.767 Y103.456 E1.01246
G1 X62.744 Y103.43 E1.01373
G1 X62.589 Y103.224 E1.02316
G1 X62.568 Y103.191 E1.02459
G1 X62.453 Y102.963 E1.03393
G1 X62.44 Y102.93 E1.03523
G1 X62.363 Y102.687 E1.04456
G1 X62.354 Y102.648 E1.04602
G1 X62.322 Y102.397 E1.05528
G1 X62.321 Y102.36 E1.05663
G1 X62.331 Y102.109 E1.06582
G1 X62.335 Y102.073 E1.06715
G1 X62.387 Y101.821 E1.07656
G1 X62.398 Y101.784 E1.07797
G1 X62.491 Y101.55 E1.08719
G1 X62.507 Y101.518 E1.0885
G1 X62.639 Y101.299 E1.09785
G1 X62.661 Y101.269 E1.09921
G1 X62.827 Y101.078 E1.10847
G1 X62.855 Y101.051 E1.10989
G1 X63.056 Y100.889 E1.11934
G1 X63.085 Y100.869 E1.12063
G1 X63.302 Y100.745 E1.12977
G1 X63.337 Y100.73 E1.13116
G1 X63.577 Y100.643 E1.1405
G1 X63.614 Y100.633 E1.14191
G1 X63.876 Y100.588 E1.15163
G1 X63.914 Y100.585 E1.15303
G1 X64.161 Y100.585 E1.16206
G1 X64.198 Y100.588 E1.16342
G1 X64.449 Y100.63 E1.17273
G1 X64.486 Y100.639 E1.17413
G1 X64.727 Y100.724 E1.18348
G1 X64.761 Y100.739 E1.18483
G1 X64.998 Y100.872 E1.19478
G1 X65.232 Y101.059 E1.20574
G1 X65.415 Y101.268 E1.2159
G1 X65.559 Y101.499 E1.22586
G1 X65.574 Y101.529 E1.22709
G1 X65.675 Y101.768 E1.23658
G1 X65.687 Y101.807 E1.23807
G1 X65.741 Y102.054 E1.24732
G1 X65.746 Y102.091 E1.24869
G1 X65.757 Y102.344 E1.25795
G1 X65.756 Y102.381 E1.25931
G1 X65.725 Y102.637 E1.26874
G1 X65.717 Y102.675 E1.27016
G1 X65.644 Y102.915 E1.27934
G1 X65.63 Y102.949 E1.28069
G1 X65.517 Y103.178 E1.29003
G1 X65.497 Y103.21 E1.29141
G1 X65.345 Y103.417 E1.3008
G1 X65.321 Y103.444 E1.30213
G1 X65.139 Y103.622 E1.31144
G1 X65.11 Y103.646 E1.31282
G1 X64.902 Y103.788 E1.32203
G1 X64.868 Y103.807 E1.32346
G1 X64.635 Y103.912 E1.33281
G1 F1202.7 X64.601 Y103.923 E1.33411
G1 X64.339 Y103.993 E1.34401
G0 F6000 X64.108 Y104.458
;TYPE:WALL-INNER
G1 F1200 X64.046 Y104.46 E1.34628
G1 X63.989 Y104.458 E1.34837
G1 X63.733 Y104.437 E1.35776
G1 X63.626 Y104.418 E1.36174
G1 F1202.7 X63.383 Y104.355 E1.3709
G1 X63.281 Y104.321 E1.37483
G1 F1200 X63.046 Y104.218 E1.38422
G1 X62.944 Y104.162 E1.38847
G1 X62.735 Y104.022 E1.39768
G1 X62.645 Y103.949 E1.40192
G1 X62.585 Y103.892 E1.40494
G1 X62.462 Y103.773 E1.41121
G1 X62.392 Y103.694 E1.41507
G1 X62.237 Y103.488 E1.4245
G1 X62.175 Y103.389 E1.42877
G1 X62.06 Y103.161 E1.43812
G1 X62.02 Y103.063 E1.44199
G1 F1160.4 X61.98 Y102.987 E1.44524
G1 F1088.7 X61.94 Y102.911 E1.4487
G1 F1025.2 X61.9 Y102.834 E1.45242
G1 F949.6 X61.852 Y102.746 E1.45705
G1 F893.4 X61.838 Y102.714 E1.45877
G1 F891.9 X61.815 Y102.462 E1.47122
G1 F907.2 X61.811 Y102.339 E1.47718
G1 X61.819 Y102.088 E1.48933
G1 F894.9 X61.827 Y101.969 E1.49518
G1 F904.1 X61.851 Y101.908 E1.49837
G1 F941.2 X61.875 Y101.847 E1.50142
G1 F981.4 X61.9 Y101.785 E1.50441
G1 F1025.2 X61.924 Y101.724 E1.50722
G1 F1118.6 X61.989 Y101.621 E1.512
G1 F1200 X62.082 Y101.388 E1.52118
G1 X62.131 Y101.29 E1.52519
G1 X62.263 Y101.071 E1.53454
G1 X62.329 Y100.98 E1.53866
G1 X62.495 Y100.79 E1.54789
G1 X62.579 Y100.709 E1.55216
G1 X62.78 Y100.546 E1.56163
G1 X62.867 Y100.487 E1.56547
G1 X63.084 Y100.363 E1.57462
G1 X63.187 Y100.316 E1.57876
G1 X63.427 Y100.229 E1.5881
G1 X63.54 Y100.199 E1.59237
G1 X63.802 Y100.154 E1.6021
G1 X63.914 Y100.145 E1.60621
G1 X64.161 Y100.145 E1.61525
G1 X64.27 Y100.154 E1.61925
G1 X64.521 Y100.196 E1.62856
G1 X64.632 Y100.224 E1.63275
G1 X64.873 Y100.309 E1.6421
G1 X64.975 Y100.355 E1.64619
G1 X65.196 Y100.478 E1.65545
G1 X65.245 Y100.508 E1.65755
G1 X65.485 Y100.697 E1.66872
G1 X65.546 Y100.751 E1.6717
G1 X65.734 Y100.964 E1.6821
G1 X65.767 Y101.004 E1.684
G1 X65.801 Y101.054 E1.68621
G1 X65.957 Y101.309 E1.69714
G1 X66.08 Y101.597 E1.7086
G1 X66.117 Y101.713 E1.71306
G1 X66.171 Y101.96 E1.72231
G1 X66.186 Y102.072 E1.72644
G1 X66.197 Y102.325 E1.73571
G1 X66.193 Y102.434 E1.7397
G1 X66.162 Y102.69 E1.74913
G1 X66.138 Y102.803 E1.75336
G1 X66.065 Y103.043 E1.76254
G1 X66.024 Y103.145 E1.76656
G1 X65.911 Y103.374 E1.7759
G1 X65.852 Y103.47 E1.78002
G1 X65.7 Y103.677 E1.78942
G1 X65.629 Y103.758 E1.79336
G1 X65.447 Y103.937 E1.8027
G1 X65.358 Y104.01 E1.80691
G1 X65.15 Y104.152 E1.81612
G1 X65.049 Y104.209 E1.82037
G1 X64.816 Y104.314 E1.82972
G1 F1202.7 X64.715 Y104.349 E1.83362
G1 X64.472 Y104.414 E1.8428
G1 X64.415 Y104.427 E1.84494
G1 F1200 X64.363 Y104.434 E1.84686
G1 X64.108 Y104.458 E1.85623
G1 F2400 E0.85623
G1 F240 Z0.6
G0 F6000 X60.721 Y105.779 Z0.6
;TYPE:WALL-OUTER
G1 F240 Z0.2
G1 F2400 E1.85623
G1 F1200 X63.068 Y105.78 E1.94209
G1 F1202.7 X63.26 Y105.781 E1.9491
G1 X63.695 Y105.779 E1.96498
G1 F1200 X65.516 Y105.78 E2.03161
G1 X67.128 Y105.779 E2.09058
G1 X103.588 Y105.78 E3.42451
G1 X115.029 Y105.78 E3.8431
G1 F1202.7 X115.221 Y105.781 E3.8501
G1 X115.656 Y105.779 E3.86598
G1 F1200 X117.254 Y105.78 E3.92445
G1 X117.98 Y105.779 E3.95101
G1 X119.28 Y105.78 E3.99857
G1 X119.28 Y75.489 E5.1068
G1 X119.28 Y74.22 E5.15323
G1 X60.72 Y74.22 E7.29571
G1 X60.721 Y105.779 E8.45034
G0 F6000 X61.161 Y105.339
;TYPE:WALL-INNER
G1 F1202.7 X63.26 Y105.341 E8.52696
G1 X63.695 Y105.339 E8.54284
G1 F1200 X65.516 Y105.34 E8.60946
G1 X67.128 Y105.339 E8.66844
G1 X103.588 Y105.34 E10.00237
G1 X115.029 Y105.34 E10.42095
G1 F1202.7 X115.221 Y105.341 E10.42796
G1 X115.656 Y105.339 E10.44384
G1 F1200 X117.254 Y105.34 E10.5023
G1 X117.98 Y105.339 E10.52886
G1 X118.84 Y105.34 E10.56033
G1 X118.84 Y103.345 E10.63332
G1 F1175.9 X118.831 Y103.163 E10.64012
G1 F1118.6 X118.818 Y103.08 E10.64342
G1 F1056 X118.804 Y102.996 E10.64696
G1 F1001.9 X118.79 Y102.912 E10.65069
G1 F939.5 X118.769 Y102.786 E10.65666
G1 F921.5 X118.778 Y102.479 E10.67129
G1 F939.5 X118.78 Y102.307 E10.67933
G1 F936.2 X118.777 Y102.053 E10.69124
G1 F923.1 X118.771 Y101.884 E10.69929
G1 F936.2 X118.784 Y101.8 E10.70327
G1 F981.4 X118.797 Y101.716 E10.70707
G1 F1033.3 X118.81 Y101.632 E10.71069
G1 F1093.2 X118.825 Y101.533 E10.71471
G1 F1163 X118.84 Y101.435 E10.71845
G1 F1200 X118.84 Y78.745 E11.54859
G1 F1175.9 X118.831 Y78.563 E11.55539
G1 F1118.6 X118.818 Y78.48 E11.55869
G1 F1056 X118.804 Y78.396 E11.56223
G1 F1001.9 X118.79 Y78.312 E11.56596
G1 F939.5 X118.769 Y78.186 E11.57193
G1 F921.5 X118.778 Y77.879 E11.58656
G1 F939.5 X118.78 Y77.707 E11.5946
G1 F936.2 X118.777 Y77.453 E11.60652
G1 F923.1 X118.771 Y77.284 E11.61456
G1 F936.2 X118.784 Y77.2 E11.61854
G1 F981.4 X118.797 Y77.116 E11.62235
G1 F1033.3 X118.81 Y77.032 E11.62596
G1 F1093.2 X118.825 Y76.933 E11.62998
G1 F1163 X118.84 Y76.835 E11.63372
G1 F1200 X118.84 Y75.489 E11.68297
G1 X118.84 Y74.66 E11.7133
G1 X61.16 Y74.66 E13.82359
G1 X61.16 Y76.63 E13.89566
G1 F1191.9 X61.164 Y76.897 E13.9055
G1 F1147.8 X61.176 Y76.982 E13.90878
G1 F1086.4 X61.189 Y77.067 E13.91226
G1 F1031.2 X61.202 Y77.148 E13.91575
G1 F981.4 X61.215 Y77.229 E13.91942
G1 F937.8 X61.229 Y77.31 E13.92327
G1 F924.7 X61.223 Y77.479 E13.9313
G1 F937.8 X61.22 Y77.77 E13.94492
G1 F924.7 X61.231 Y78.154 E13.96316
G1 F921.5 X61.221 Y78.197 E13.96526
G1 F970.6 X61.201 Y78.331 E13.97139
G1 F1037.3 X61.188 Y78.415 E13.97499
G1 F1095.4 X61.174 Y78.5 E13.97844
G1 F1163 X61.16 Y78.585 E13.98169
G1 F1200 X61.16 Y86.211 E14.2607
G1 X61.16 Y93.837 E14.5397
G1 X61.16 Y101.463 E14.81871
G1 F1157.9 X61.176 Y101.557 E14.82233
G1 F1082 X61.192 Y101.651 E14.8262
G1 F1025.2 X61.203 Y101.715 E14.82898
G1 F981.4 X61.215 Y101.78 E14.83193
G1 F941.2 X61.226 Y101.845 E14.83501
G1 F904.1 X61.238 Y101.91 E14.83822
G1 F894.9 X61.233 Y102.077 E14.84641
G1 F905.7 X61.23 Y102.369 E14.86057
G1 X61.232 Y102.499 E14.86687
G1 F891.9 X61.241 Y102.752 E14.87933
G1 F893.4 X61.23 Y102.8 E14.88175
G1 F949.6 X61.205 Y102.941 E14.88837
G1 F1025.2 X61.191 Y103.025 E14.89202
G1 F1088.7 X61.176 Y103.11 E14.8955
G1 F1160.4 X61.161 Y103.195 E14.89877
G1 F1200 X61.161 Y105.339 E14.97721
G1 F2400 E13.97721
G1 F240 Z0.6
G0 F6000 X63.068 Y104.808 Z0.6
G1 F240 Z0.2
G1 F2400 E14.97721
G1 F850.2 X62.834 Y104.704 E14.99043
G1 X62.648 Y104.603 E15.00136
G1 X62.44 Y104.463 E15.01431
G1 X62.277 Y104.331 E15.02514
G1 X62.094 Y104.155 E15.03825
G1 X61.968 Y104.013 E15.04805
G1 X61.814 Y103.807 E15.06133
G1 X61.702 Y103.628 E15.07223
G1 X61.691 Y103.605 E15.07355
G1 X61.69 Y104.327 E15.11083
G1 X61.691 Y104.809 E15.13572
G1 X63.068 Y104.808 E15.20682
G0 F6000 X63.511 Y104.871
G1 F1100 X63.695 Y104.887 E15.2142
G1 F1163 X63.952 Y104.898 E15.22391
G1 F1194.6 X64.046 Y104.9 E15.22736
G1 X64.149 Y104.898 E15.23115
G1 F1157.9 X64.405 Y104.886 E15.24087
G1 F1113.9 X64.494 Y104.88 E15.24438
G1 F2400 E14.24438
G1 F240 Z0.6
G0 F6000 X61.685 Y76.352 Z0.6
G1 F240 Z0.2
G1 F2400 E15.24438
G1 F867 X61.774 Y76.203 E15.25317
G1 X61.893 Y76.04 E15.26339
G1 X62.059 Y75.848 E15.27624
G1 X62.186 Y75.721 E15.28534
G1 X62.412 Y75.538 E15.30006
G1 X62.568 Y75.432 E15.30961
G1 X62.785 Y75.309 E15.32224
G1 X62.968 Y75.223 E15.33248
G1 F887.4 X63.093 Y75.192 E15.33886
G1 F931.2 X63.218 Y75.16 E15.34494
G1 F976 X63.318 Y75.147 E15.34948
G1 F1021.3 X63.418 Y75.133 E15.35382
G1 X63.318 Y75.146 E15.35815
G1 F976 X63.218 Y75.16 E15.36269
G1 F931.2 X63.09 Y75.172 E15.36875
G1 F887.4 X62.962 Y75.185 E15.37512
G1 F867 X61.684 Y75.184 E15.43984
G1 X61.685 Y76.352 E15.49898
G1 F2400 E14.49898
G1 F240 Z0.6
G0 F6000 X115.696 Y79.392 Z0.6
;TYPE:WALL-OUTER
G1 F240 Z0.2
G1 F2400 E15.49898
G1 F1200 X115.453 Y79.33 E15.50816
G1 X115.419 Y79.318 E15.50948
G1 X115.165 Y79.206 E15.51963
G1 X114.92 Y79.04 E15.53046
G1 X114.715 Y78.841 E15.54091
G1 X114.551 Y78.624 E15.55086
G1 X114.53 Y78.591 E15.5523
G1 X114.414 Y78.363 E15.56165
G1 X114.401 Y78.329 E15.56299
G1 X114.325 Y78.086 E15.5723
G1 X114.316 Y78.049 E15.57369
G1 X114.283 Y77.799 E15.58292
G1 X114.282 Y77.761 E15.58431
G1 X114.292 Y77.51 E15.5935
G1 X114.296 Y77.473 E15.59486
G1 X114.346 Y77.235 E15.60376
G1 X114.356 Y77.201 E15.60506
G1 X114.452 Y76.952 E15.61482
G1 X114.469 Y76.918 E15.61621
G1 X114.6 Y76.701 E15.62549
G1 X114.622 Y76.671 E15.62685
G1 X114.788 Y76.479 E15.63613
G1 X114.816 Y76.451 E15.63758
G1 X115.017 Y76.289 E15.64703
G1 X115.046 Y76.269 E15.64831
G1 X115.263 Y76.146 E15.65744
G1 X115.297 Y76.13 E15.65882
G1 F1202.7 X115.538 Y76.044 E15.66816
G1 X115.575 Y76.033 E15.66957
